src/luts/natural.cube
TITLE "DJI D-Log to natural (soft S-curve, warm shadows)"
LUT_3D_SIZE 9
DOMAIN_MIN 0.0 0.0 0.0
DOMAIN_MAX 1.0 1.0 1.0
0.000000 0.000000 0.000000
0.115595 0.000000 0.000000
0.271595 0.000000 0.000000
0.437159 0.000000 0.000000
0.665990 0.000000 0.000000
1.000000 0.000000 0.000000
1.000000 0.000000 0.000000
1.000000 0.000000 0.000000
1.000000 0.000000 0.000000
0.000000 0.114582 0.000000
0.115595 0.114582 0.000000
0.271595 0.114582 0.000000
0.437159 0.114582 0.000000
0.665990 0.114582 0.000000
1.000000 0.114582 0.000000
1.000000 0.114582 0.000000
1.000000 0.114582 0.000000
1.000000 0.114582 0.000000
0.000000 0.269455 0.000000
0.115595 0.269455 0.000000
0.271595 0.269455 0.000000
0.437159 0.269455 0.000000
0.665990 0.269455 0.000000
1.000000 0.269455 0.000000
1.000000 0.269455 0.000000
1.000000 0.269455 0.000000
1.000000 0.269455 0.000000
0.000000 0.434230 0.000000
0.115595 0.434230 0.000000
0.271595 0.434230 0.000000
0.437159 0.434230 0.000000
0.665990 0.434230 0.000000
1.000000 0.434230 0.000000
1.000000 0.434230 0.000000
1.000000 0.434230 0.000000
1.000000 0.434230 0.000000
0.000000 0.665990 0.000000
0.115595 0.665990 0.000000
0.271595 0.665990 0.000000
0.437159 0.665990 0.000000
0.665990 0.665990 0.000000
1.000000 0.665990 0.000000
1.000000 0.665990 0.000000
1.000000 0.665990 0.000000
1.000000 0.665990 0.000000
0.000000 1.000000 0.000000
0.115595 1.000000 0.000000
0.271595 1.000000 0.000000
0.437159 1.000000 0.000000
0.665990 1.000000 0.000000
1.000000 1.000000 0.000000
1.000000 1.000000 0.000000
1.000000 1.000000 0.000000
1.000000 1.000000 0.000000
0.000000 1.000000 0.000000
0.115595 1.000000 0.000000
0.271595 1.000000 0.000000
0.437159 1.000000 0.000000
0.665990 1.000000 0.000000
1.000000 1.000000 0.000000
1.000000 1.000000 0.000000
1.000000 1.000000 0.000000
1.000000 1.000000 0.000000
0.000000 1.000000 0.000000
0.115595 1.000000 0.000000
0.271595 1.000000 0.000000
0.437159 1.000000 0.000000
0.665990 1.000000 0.000000
1.000000 1.000000 0.000000
1.000000 1.000000 0.000000
1.000000 1.000000 0.000000
1.000000 1.000000 0.000000
0.000000 1.000000 0.000000
0.115595 1.000000 0.000000
0.271595 1.000000 0.000000
0.437159 1.000000 0.000000
0.665990 1.000000 0.000000
1.000000 1.000000 0.000000
1.000000 1.000000 0.000000
1.000000 1.000000 0.000000
1.000000 1.000000 0.000000
0.000000 0.000000 0.114072
0.115595 0.000000 0.114072
0.271595 0.000000 0.114072
0.437159 0.000000 0.114072
0.665990 0.000000 0.114072
1.000000 0.000000 0.114072
1.000000 0.000000 0.114072
1.000000 0.000000 0.114072
1.000000 0.000000 0.114072
0.000000 0.114582 0.114072
0.115595 0.114582 0.114072
0.271595 0.114582 0.114072
0.437159 0.114582 0.114072
0.665990 0.114582 0.114072
1.000000 0.114582 0.114072
1.000000 0.114582 0.114072
1.000000 0.114582 0.114072
1.000000 0.114582 0.114072
0.000000 0.269455 0.114072
0.115595 0.269455 0.114072
0.271595 0.269455 0.114072
0.437159 0.269455 0.114072
0.665990 0.269455 0.114072
1.000000 0.269455 0.114072
1.000000 0.269455 0.114072
1.000000 0.269455 0.114072
1.000000 0.269455 0.114072
0.000000 0.434230 0.114072
0.115595 0.434230 0.114072
0.271595 0.434230 0.114072
0.437159 0.434230 0.114072
0.665990 0.434230 0.114072
1.000000 0.434230 0.114072
1.000000 0.434230 0.114072
1.000000 0.434230 0.114072
1.000000 0.434230 0.114072
0.000000 0.665990 0.114072
0.115595 0.665990 0.114072
0.271595 0.665990 0.114072
0.437159 0.665990 0.114072
0.665990 0.665990 0.114072
1.000000 0.665990 0.114072
1.000000 0.665990 0.114072
1.000000 0.665990 0.114072
1.000000 0.665990 0.114072
0.000000 1.000000 0.114072
0.115595 1.000000 0.114072
0.271595 1.000000 0.114072
0.437159 1.000000 0.114072
0.665990 1.000000 0.114072
1.000000 1.000000 0.114072
1.000000 1.000000 0.114072
1.000000 1.000000 0.114072
1.000000 1.000000 0.114072
0.000000 1.000000 0.114072
0.115595 1.000000 0.114072
0.271595 1.000000 0.114072
0.437159 1.000000 0.114072
0.665990 1.000000 0.114072
1.000000 1.000000 0.114072
1.000000 1.000000 0.114072
1.000000 1.000000 0.114072
1.000000 1.000000 0.114072
0.000000 1.000000 0.114072
0.115595 1.000000 0.114072
0.271595 1.000000 0.114072
0.437159 1.000000 0.114072
0.665990 1.000000 0.114072
1.000000 1.000000 0.114072
1.000000 1.000000 0.114072
1.000000 1.000000 0.114072
1.000000 1.000000 0.114072
0.000000 1.000000 0.114072
0.115595 1.000000 0.114072
0.271595 1.000000 0.114072
0.437159 1.000000 0.114072
0.665990 1.000000 0.114072
1.000000 1.000000 0.114072
1.000000 1.000000 0.114072
1.000000 1.000000 0.114072
1.000000 1.000000 0.114072
0.000000 0.000000 0.268373
0.115595 0.000000 0.268373
0.271595 0.000000 0.268373
0.437159 0.000000 0.268373
0.665990 0.000000 0.268373
1.000000 0.000000 0.268373
1.000000 0.000000 0.268373
1.000000 0.000000 0.268373
1.000000 0.000000 0.268373
0.000000 0.114582 0.268373
0.115595 0.114582 0.268373
0.271595 0.114582 0.268373
0.437159 0.114582 0.268373
0.665990 0.114582 0.268373
1.000000 0.114582 0.268373
1.000000 0.114582 0.268373
1.000000 0.114582 0.268373
1.000000 0.114582 0.268373
0.000000 0.269455 0.268373
0.115595 0.269455 0.268373
0.271595 0.269455 0.268373
0.437159 0.269455 0.268373
0.665990 0.269455 0.268373
1.000000 0.269455 0.268373
1.000000 0.269455 0.268373
1.000000 0.269455 0.268373
1.000000 0.269455 0.268373
0.000000 0.434230 0.268373
0.115595 0.434230 0.268373
0.271595 0.434230 0.268373
0.437159 0.434230 0.268373
0.665990 0.434230 0.268373
1.000000 0.434230 0.268373
1.000000 0.434230 0.268373
1.000000 0.434230 0.268373
1.000000 0.434230 0.268373
0.000000 0.665990 0.268373
0.115595 0.665990 0.268373
0.271595 0.665990 0.268373
0.437159 0.665990 0.268373
0.665990 0.665990 0.268373
1.000000 0.665990 0.268373
1.000000 0.665990 0.268373
1.000000 0.665990 0.268373
1.000000 0.665990 0.268373
0.000000 1.000000 0.268373
0.115595 1.000000 0.268373
0.271595 1.000000 0.268373
0.437159 1.000000 0.268373
0.665990 1.000000 0.268373
1.000000 1.000000 0.268373
1.000000 1.000000 0.268373
1.000000 1.000000 0.268373
1.000000 1.000000 0.268373
0.000000 1.000000 0.268373
0.115595 1.000000 0.268373
0.271595 1.000000 0.268373
0.437159 1.000000 0.268373
0.665990 1.000000 0.268373
1.000000 1.000000 0.268373
1.000000 1.000000 0.268373
1.000000 1.000000 0.268373
1.000000 1.000000 0.268373
0.000000 1.000000 0.268373
0.115595 1.000000 0.268373
0.271595 1.000000 0.268373
0.437159 1.000000 0.268373
0.665990 1.000000 0.268373
1.000000 1.000000 0.268373
1.000000 1.000000 0.268373
1.000000 1.000000 0.268373
1.000000 1.000000 0.268373
0.000000 1.000000 0.268373
0.115595 1.000000 0.268373
0.271595 1.000000 0.268373
0.437159 1.000000 0.268373
0.665990 1.000000 0.268373
1.000000 1.000000 0.268373
1.000000 1.000000 0.268373
1.000000 1.000000 0.268373
1.000000 1.000000 0.268373
0.000000 0.000000 0.432749
0.115595 0.000000 0.432749
0.271595 0.000000 0.432749
0.437159 0.000000 0.432749
0.665990 0.000000 0.432749
1.000000 0.000000 0.432749
1.000000 0.000000 0.432749
1.000000 0.000000 0.432749
1.000000 0.000000 0.432749
0.000000 0.114582 0.432749
0.115595 0.114582 0.432749
0.271595 0.114582 0.432749
0.437159 0.114582 0.432749
0.665990 0.114582 0.432749
1.000000 0.114582 0.432749
1.000000 0.114582 0.432749
1.000000 0.114582 0.432749
1.000000 0.114582 0.432749
0.000000 0.269455 0.432749
0.115595 0.269455 0.432749
0.271595 0.269455 0.432749
0.437159 0.269455 0.432749
0.665990 0.269455 0.432749
1.000000 0.269455 0.432749
1.000000 0.269455 0.432749
1.000000 0.269455 0.432749
1.000000 0.269455 0.432749
0.000000 0.434230 0.432749
0.115595 0.434230 0.432749
0.271595 0.434230 0.432749
0.437159 0.434230 0.432749
0.665990 0.434230 0.432749
1.000000 0.434230 0.432749
1.000000 0.434230 0.432749
1.000000 0.434230 0.432749
1.000000 0.434230 0.432749
0.000000 0.665990 0.432749
0.115595 0.665990 0.432749
0.271595 0.665990 0.432749
0.437159 0.665990 0.432749
0.665990 0.665990 0.432749
1.000000 0.665990 0.432749
1.000000 0.665990 0.432749
1.000000 0.665990 0.432749
1.000000 0.665990 0.432749
0.000000 1.000000 0.432749
0.115595 1.000000 0.432749
0.271595 1.000000 0.432749
0.437159 1.000000 0.432749
0.665990 1.000000 0.432749
1.000000 1.000000 0.432749
1.000000 1.000000 0.432749
1.000000 1.000000 0.432749
1.000000 1.000000 0.432749
0.000000 1.000000 0.432749
0.115595 1.000000 0.432749
0.271595 1.000000 0.432749
0.437159 1.000000 0.432749
0.665990 1.000000 0.432749
1.000000 1.000000 0.432749
1.000000 1.000000 0.432749
1.000000 1.000000 0.432749
1.000000 1.000000 0.432749
0.000000 1.000000 0.432749
0.115595 1.000000 0.432749
0.271595 1.000000 0.432749
0.437159 1.000000 0.432749
0.665990 1.000000 0.432749
1.000000 1.000000 0.432749
1.000000 1.000000 0.432749
1.000000 1.000000 0.432749
1.000000 1.000000 0.432749
0.000000 1.000000 0.432749
0.115595 1.000000 0.432749
0.271595 1.000000 0.432749
0.437159 1.000000 0.432749
0.665990 1.000000 0.432749
1.000000 1.000000 0.432749
1.000000 1.000000 0.432749
1.000000 1.000000 0.432749
1.000000 1.000000 0.432749
0.000000 0.000000 0.665990
0.115595 0.000000 0.665990
0.271595 0.000000 0.665990
0.437159 0.000000 0.665990
0.665990 0.000000 0.665990
1.000000 0.000000 0.665990
1.000000 0.000000 0.665990
1.000000 0.000000 0.665990
1.000000 0.000000 0.665990
0.000000 0.114582 0.665990
0.115595 0.114582 0.665990
0.271595 0.114582 0.665990
0.437159 0.114582 0.665990
0.665990 0.114582 0.665990
1.000000 0.114582 0.665990
1.000000 0.114582 0.665990
1.000000 0.114582 0.665990
1.000000 0.114582 0.665990
0.000000 0.269455 0.665990
0.115595 0.269455 0.665990
0.271595 0.269455 0.665990
0.437159 0.269455 0.665990
0.665990 0.269455 0.665990
1.000000 0.269455 0.665990
1.000000 0.269455 0.665990
1.000000 0.269455 0.665990
1.000000 0.269455 0.665990
0.000000 0.434230 0.665990
0.115595 0.434230 0.665990
0.271595 0.434230 0.665990
0.437159 0.434230 0.665990
0.665990 0.434230 0.665990
1.000000 0.434230 0.665990
1.000000 0.434230 0.665990
1.000000 0.434230 0.665990
1.000000 0.434230 0.665990
0.000000 0.665990 0.665990
0.115595 0.665990 0.665990
0.271595 0.665990 0.665990
0.437159 0.665990 0.665990
0.665990 0.665990 0.665990
1.000000 0.665990 0.665990
1.000000 0.665990 0.665990
1.000000 0.665990 0.665990
1.000000 0.665990 0.665990
0.000000 1.000000 0.665990
0.115595 1.000000 0.665990
0.271595 1.000000 0.665990
0.437159 1.000000 0.665990
0.665990 1.000000 0.665990
1.000000 1.000000 0.665990
1.000000 1.000000 0.665990
1.000000 1.000000 0.665990
1.000000 1.000000 0.665990
0.000000 1.000000 0.665990
0.115595 1.000000 0.665990
0.271595 1.000000 0.665990
0.437159 1.000000 0.665990
0.665990 1.000000 0.665990
1.000000 1.000000 0.665990
1.000000 1.000000 0.665990
1.000000 1.000000 0.665990
1.000000 1.000000 0.665990
0.000000 1.000000 0.665990
0.115595 1.000000 0.665990
0.271595 1.000000 0.665990
0.437159 1.000000 0.665990
0.665990 1.000000 0.665990
1.000000 1.000000 0.665990
1.000000 1.000000 0.665990
1.000000 1.000000 0.665990
1.000000 1.000000 0.665990
0.000000 1.000000 0.665990
0.115595 1.000000 0.665990
0.271595 1.000000 0.665990
0.437159 1.000000 0.665990
0.665990 1.000000 0.665990
1.000000 1.000000 0.665990
1.000000 1.000000 0.665990
1.000000 1.000000 0.665990
1.000000 1.000000 0.665990
0.000000 0.000000 1.000000
0.115595 0.000000 1.000000
0.271595 0.000000 1.000000
0.437159 0.000000 1.000000
0.665990 0.000000 1.000000
1.000000 0.000000 1.000000
1.000000 0.000000 1.000000
1.000000 0.000000 1.000000
1.000000 0.000000 1.000000
0.000000 0.114582 1.000000
0.115595 0.114582 1.000000
0.271595 0.114582 1.000000
0.437159 0.114582 1.000000
0.665990 0.114582 1.000000
1.000000 0.114582 1.000000
1.000000 0.114582 1.000000
1.000000 0.114582 1.000000
1.000000 0.114582 1.000000
0.000000 0.269455 1.000000
0.115595 0.269455 1.000000
0.271595 0.269455 1.000000
0.437159 0.269455 1.000000
0.665990 0.269455 1.000000
1.000000 0.269455 1.000000
1.000000 0.269455 1.000000
1.000000 0.269455 1.000000
1.000000 0.269455 1.000000
0.000000 0.434230 1.000000
0.115595 0.434230 1.000000
0.271595 0.434230 1.000000
0.437159 0.434230 1.000000
0.665990 0.434230 1.000000
1.000000 0.434230 1.000000
1.000000 0.434230 1.000000
1.000000 0.434230 1.000000
1.000000 0.434230 1.000000
0.000000 0.665990 1.000000
0.115595 0.665990 1.000000
0.271595 0.665990 1.000000
0.437159 0.665990 1.000000
0.665990 0.665990 1.000000
1.000000 0.665990 1.000000
1.000000 0.665990 1.000000
1.000000 0.665990 1.000000
1.000000 0.665990 1.000000
0.000000 1.000000 1.000000
0.115595 1.000000 1.000000
0.271595 1.000000 1.000000
0.437159 1.000000 1.000000
0.665990 1.000000 1.000000
1.000000 1.000000 1.000000
1.000000 1.000000 1.000000
1.000000 1.000000 1.000000
1.000000 1.000000 1.000000
0.000000 1.000000 1.000000
0.115595 1.000000 1.000000
0.271595 1.000000 1.000000
0.437159 1.000000 1.000000
0.665990 1.000000 1.000000
1.000000 1.000000 1.000000
1.000000 1.000000 1.000000
1.000000 1.000000 1.000000
1.000000 1.000000 1.000000
0.000000 1.000000 1.000000
0.115595 1.000000 1.000000
0.271595 1.000000 1.000000
0.437159 1.000000 1.000000
0.665990 1.000000 1.000000
1.000000 1.000000 1.000000
1.000000 1.000000 1.000000
1.000000 1.000000 1.000000
1.000000 1.000000 1.000000
0.000000 1.000000 1.000000
0.115595 1.000000 1.000000
0.271595 1.000000 1.000000
0.437159 1.000000 1.000000
0.665990 1.000000 1.000000
1.000000 1.000000 1.000000
1.000000 1.000000 1.000000
1.000000 1.000000 1.000000
1.000000 1.000000 1.000000
0.000000 0.000000 1.000000
0.115595 0.000000 1.000000
0.271595 0.000000 1.000000
0.437159 0.000000 1.000000
0.665990 0.000000 1.000000
1.000000 0.000000 1.000000
1.000000 0.000000 1.000000
1.000000 0.000000 1.000000
1.000000 0.000000 1.000000
0.000000 0.114582 1.000000
0.115595 0.114582 1.000000
0.271595 0.114582 1.000000
0.437159 0.114582 1.000000
0.665990 0.114582 1.000000
1.000000 0.114582 1.000000
1.000000 0.114582 1.000000
1.000000 0.114582 1.000000
1.000000 0.114582 1.000000
0.000000 0.269455 1.000000
0.115595 0.269455 1.000000
0.271595 0.269455 1.000000
0.437159 0.269455 1.000000
0.665990 0.269455 1.000000
1.000000 0.269455 1.000000
1.000000 0.269455 1.000000
1.000000 0.269455 1.000000
1.000000 0.269455 1.000000
0.000000 0.434230 1.000000
0.115595 0.434230 1.000000
0.271595 0.434230 1.000000
0.437159 0.434230 1.000000
0.665990 0.434230 1.000000
1.000000 0.434230 1.000000
1.000000 0.434230 1.000000
1.000000 0.434230 1.000000
1.000000 0.434230 1.000000
0.000000 0.665990 1.000000
0.115595 0.665990 1.000000
0.271595 0.665990 1.000000
0.437159 0.665990 1.000000
0.665990 0.665990 1.000000
1.000000 0.665990 1.000000
1.000000 0.665990 1.000000
1.000000 0.665990 1.000000
1.000000 0.665990 1.000000
0.000000 1.000000 1.000000
0.115595 1.000000 1.000000
0.271595 1.000000 1.000000
0.437159 1.000000 1.000000
0.665990 1.000000 1.000000
1.000000 1.000000 1.000000
1.000000 1.000000 1.000000
1.000000 1.000000 1.000000
1.000000 1.000000 1.000000
0.000000 1.000000 1.000000
0.115595 1.000000 1.000000
0.271595 1.000000 1.000000
0.437159 1.000000 1.000000
0.665990 1.000000 1.000000
1.000000 1.000000 1.000000
1.000000 1.000000 1.000000
1.000000 1.000000 1.000000
1.000000 1.000000 1.000000
0.000000 1.000000 1.000000
0.115595 1.000000 1.000000
0.271595 1.000000 1.000000
0.437159 1.000000 1.000000
0.665990 1.000000 1.000000
1.000000 1.000000 1.000000
1.000000 1.000000 1.000000
1.000000 1.000000 1.000000
1.000000 1.000000 1.000000
0.000000 1.000000 1.000000
0.115595 1.000000 1.000000
0.271595 1.000000 1.000000
0.437159 1.000000 1.000000
0.665990 1.000000 1.000000
1.000000 1.000000 1.000000
1.000000 1.000000 1.000000
1.000000 1.000000 1.000000
1.000000 1.000000 1.000000
0.000000 0.000000 1.000000
0.115595 0.000000 1.000000
0.271595 0.000000 1.000000
0.437159 0.000000 1.000000
0.665990 0.000000 1.000000
1.000000 0.000000 1.000000
1.000000 0.000000 1.000000
1.000000 0.000000 1.000000
1.000000 0.000000 1.000000
0.000000 0.114582 1.000000
0.115595 0.114582 1.000000
0.271595 0.114582 1.000000
0.437159 0.114582 1.000000
0.665990 0.114582 1.000000
1.000000 0.114582 1.000000
1.000000 0.114582 1.000000
1.000000 0.114582 1.000000
1.000000 0.114582 1.000000
0.000000 0.269455 1.000000
0.115595 0.269455 1.000000
0.271595 0.269455 1.000000
0.437159 0.269455 1.000000
0.665990 0.269455 1.000000
1.000000 0.269455 1.000000
1.000000 0.269455 1.000000
1.000000 0.269455 1.000000
1.000000 0.269455 1.000000
0.000000 0.434230 1.000000
0.115595 0.434230 1.000000
0.271595 0.434230 1.000000
0.437159 0.434230 1.000000
0.665990 0.434230 1.000000
1.000000 0.434230 1.000000
1.000000 0.434230 1.000000
1.000000 0.434230 1.000000
1.000000 0.434230 1.000000
0.000000 0.665990 1.000000
0.115595 0.665990 1.000000
0.271595 0.665990 1.000000
0.437159 0.665990 1.000000
0.665990 0.665990 1.000000
1.000000 0.665990 1.000000
1.000000 0.665990 1.000000
1.000000 0.665990 1.000000
1.000000 0.665990 1.000000
0.000000 1.000000 1.000000
0.115595 1.000000 1.000000
0.271595 1.000000 1.000000
0.437159 1.000000 1.000000
0.665990 1.000000 1.000000
1.000000 1.000000 1.000000
1.000000 1.000000 1.000000
1.000000 1.000000 1.000000
1.000000 1.000000 1.000000
0.000000 1.000000 1.000000
0.115595 1.000000 1.000000
0.271595 1.000000 1.000000
0.437159 1.000000 1.000000
0.665990 1.000000 1.000000
1.000000 1.000000 1.000000
1.000000 1.000000 1.000000
1.000000 1.000000 1.000000
1.000000 1.000000 1.000000
0.000000 1.000000 1.000000
0.115595 1.000000 1.000000
0.271595 1.000000 1.000000
0.437159 1.000000 1.000000
0.665990 1.000000 1.000000
1.000000 1.000000 1.000000
1.000000 1.000000 1.000000
1.000000 1.000000 1.000000
1.000000 1.000000 1.000000
0.000000 1.000000 1.000000
0.115595 1.000000 1.000000
0.271595 1.000000 1.000000
0.437159 1.000000 1.000000
0.665990 1.000000 1.000000
1.000000 1.000000 1.000000
1.000000 1.000000 1.000000
1.000000 1.000000 1.000000
1.000000 1.000000 1.000000
0.000000 0.000000 1.000000
0.115595 0.000000 1.000000
0.271595 0.000000 1.000000
0.437159 0.000000 1.000000
0.665990 0.000000 1.000000
1.000000 0.000000 1.000000
1.000000 0.000000 1.000000
1.000000 0.000000 1.000000
1.000000 0.000000 1.000000
0.000000 0.114582 1.000000
0.115595 0.114582 1.000000
0.271595 0.114582 1.000000
0.437159 0.114582 1.000000
0.665990 0.114582 1.000000
1.000000 0.114582 1.000000
1.000000 0.114582 1.000000
1.000000 0.114582 1.000000
1.000000 0.114582 1.000000
0.000000 0.269455 1.000000
0.115595 0.269455 1.000000
0.271595 0.269455 1.000000
0.437159 0.269455 1.000000
0.665990 0.269455 1.000000
1.000000 0.269455 1.000000
1.000000 0.269455 1.000000
1.000000 0.269455 1.000000
1.000000 0.269455 1.000000
0.000000 0.434230 1.000000
0.115595 0.434230 1.000000
0.271595 0.434230 1.000000
0.437159 0.434230 1.000000
0.665990 0.434230 1.000000
1.000000 0.434230 1.000000
1.000000 0.434230 1.000000
1.000000 0.434230 1.000000
1.000000 0.434230 1.000000
0.000000 0.665990 1.000000
0.115595 0.665990 1.000000
0.271595 0.665990 1.000000
0.437159 0.665990 1.000000
0.665990 0.665990 1.000000
1.000000 0.665990 1.000000
1.000000 0.665990 1.000000
1.000000 0.665990 1.000000
1.000000 0.665990 1.000000
0.000000 1.000000 1.000000
0.115595 1.000000 1.000000
0.271595 1.000000 1.000000
0.437159 1.000000 1.000000
0.665990 1.000000 1.000000
1.000000 1.000000 1.000000
1.000000 1.000000 1.000000
1.000000 1.000000 1.000000
1.000000 1.000000 1.000000
0.000000 1.000000 1.000000
0.115595 1.000000 1.000000
0.271595 1.000000 1.000000
0.437159 1.000000 1.000000
0.665990 1.000000 1.000000
1.000000 1.000000 1.000000
1.000000 1.000000 1.000000
1.000000 1.000000 1.000000
1.000000 1.000000 1.000000
0.000000 1.000000 1.000000
0.115595 1.000000 1.000000
0.271595 1.000000 1.000000
0.437159 1.000000 1.000000
0.665990 1.000000 1.000000
1.000000 1.000000 1.000000
1.000000 1.000000 1.000000
1.000000 1.000000 1.000000
1.000000 1.000000 1.000000
0.000000 1.000000 1.000000
0.115595 1.000000 1.000000
0.271595 1.000000 1.000000
0.437159 1.000000 1.000000
0.665990 1.000000 1.000000
1.000000 1.000000 1.000000
1.000000 1.000000 1.000000
1.000000 1.000000 1.000000
1.000000 1.000000 1.000000
