src/luts/natural.cube
TITLE "DJI D-Log to natural (soft S-curve, warm shadows)"
LUT_3D_SIZE 17
DOMAIN_MIN 0.0 0.0 0.0
DOMAIN_MAX 1.0 1.0 1.0
0.000000 0.000000 0.000000
0.000000 0.000000 0.000000
0.115595 0.000000 0.000000
0.195541 0.000000 0.000000
0.271595 0.000000 0.000000
0.351583 0.000000 0.000000
0.437159 0.000000 0.000000
0.534874 0.000000 0.000000
0.665990 0.000000 0.000000
0.892202 0.000000 0.000000
1.000000 0.000000 0.000000
1.000000 0.000000 0.000000
1.000000 0.000000 0.000000
1.000000 0.000000 0.000000
1.000000 0.000000 0.000000
1.000000 0.000000 0.000000
1.000000 0.000000 0.000000
0.000000 0.000000 0.000000
0.000000 0.000000 0.000000
0.115595 0.000000 0.000000
0.195541 0.000000 0.000000
0.271595 0.000000 0.000000
0.351583 0.000000 0.000000
0.437159 0.000000 0.000000
0.534874 0.000000 0.000000
0.665990 0.000000 0.000000
0.892202 0.000000 0.000000
1.000000 0.000000 0.000000
1.000000 0.000000 0.000000
1.000000 0.000000 0.000000
1.000000 0.000000 0.000000
1.000000 0.000000 0.000000
1.000000 0.000000 0.000000
1.000000 0.000000 0.000000
0.000000 0.114582 0.000000
0.000000 0.114582 0.000000
0.115595 0.114582 0.000000
0.195541 0.114582 0.000000
0.271595 0.114582 0.000000
0.351583 0.114582 0.000000
0.437159 0.114582 0.000000
0.534874 0.114582 0.000000
0.665990 0.114582 0.000000
0.892202 0.114582 0.000000
1.000000 0.114582 0.000000
1.000000 0.114582 0.000000
1.000000 0.114582 0.000000
1.000000 0.114582 0.000000
1.000000 0.114582 0.000000
1.000000 0.114582 0.000000
1.000000 0.114582 0.000000
0.000000 0.193900 0.000000
0.000000 0.193900 0.000000
0.115595 0.193900 0.000000
0.195541 0.193900 0.000000
0.271595 0.193900 0.000000
0.351583 0.193900 0.000000
0.437159 0.193900 0.000000
0.534874 0.193900 0.000000
0.665990 0.193900 0.000000
0.892202 0.193900 0.000000
1.000000 0.193900 0.000000
1.000000 0.193900 0.000000
1.000000 0.193900 0.000000
1.000000 0.193900 0.000000
1.000000 0.193900 0.000000
1.000000 0.193900 0.000000
1.000000 0.193900 0.000000
0.000000 0.269455 0.000000
0.000000 0.269455 0.000000
0.115595 0.269455 0.000000
0.195541 0.269455 0.000000
0.271595 0.269455 0.000000
0.351583 0.269455 0.000000
0.437159 0.269455 0.000000
0.534874 0.269455 0.000000
0.665990 0.269455 0.000000
0.892202 0.269455 0.000000
1.000000 0.269455 0.000000
1.000000 0.269455 0.000000
1.000000 0.269455 0.000000
1.000000 0.269455 0.000000
1.000000 0.269455 0.000000
1.000000 0.269455 0.000000
1.000000 0.269455 0.000000
0.000000 0.349037 0.000000
0.000000 0.349037 0.000000
0.115595 0.349037 0.000000
0.195541 0.349037 0.000000
0.271595 0.349037 0.000000
0.351583 0.349037 0.000000
0.437159 0.349037 0.000000
0.534874 0.349037 0.000000
0.665990 0.349037 0.000000
0.892202 0.349037 0.000000
1.000000 0.349037 0.000000
1.000000 0.349037 0.000000
1.000000 0.349037 0.000000
1.000000 0.349037 0.000000
1.000000 0.349037 0.000000
1.000000 0.349037 0.000000
1.000000 0.349037 0.000000
0.000000 0.434230 0.000000
0.000000 0.434230 0.000000
0.115595 0.434230 0.000000
0.195541 0.434230 0.000000
0.271595 0.434230 0.000000
0.351583 0.434230 0.000000
0.437159 0.434230 0.000000
0.534874 0.434230 0.000000
0.665990 0.434230 0.000000
0.892202 0.434230 0.000000
1.000000 0.434230 0.000000
1.000000 0.434230 0.000000
1.000000 0.434230 0.000000
1.000000 0.434230 0.000000
1.000000 0.434230 0.000000
1.000000 0.434230 0.000000
1.000000 0.434230 0.000000
0.000000 0.531162 0.000000
0.000000 0.531162 0.000000
0.115595 0.531162 0.000000
0.195541 0.531162 0.000000
0.271595 0.531162 0.000000
0.351583 0.531162 0.000000
0.437159 0.531162 0.000000
0.534874 0.531162 0.000000
0.665990 0.531162 0.000000
0.892202 0.531162 0.000000
1.000000 0.531162 0.000000
1.000000 0.531162 0.000000
1.000000 0.531162 0.000000
1.000000 0.531162 0.000000
1.000000 0.531162 0.000000
1.000000 0.531162 0.000000
1.000000 0.531162 0.000000
0.000000 0.665990 0.000000
0.000000 0.665990 0.000000
0.115595 0.665990 0.000000
0.195541 0.665990 0.000000
0.271595 0.665990 0.000000
0.351583 0.665990 0.000000
0.437159 0.665990 0.000000
0.534874 0.665990 0.000000
0.665990 0.665990 0.000000
0.892202 0.665990 0.000000
1.000000 0.665990 0.000000
1.000000 0.665990 0.000000
1.000000 0.665990 0.000000
1.000000 0.665990 0.000000
1.000000 0.665990 0.000000
1.000000 0.665990 0.000000
1.000000 0.665990 0.000000
0.000000 0.892202 0.000000
0.000000 0.892202 0.000000
0.115595 0.892202 0.000000
0.195541 0.892202 0.000000
0.271595 0.892202 0.000000
0.351583 0.892202 0.000000
0.437159 0.892202 0.000000
0.534874 0.892202 0.000000
0.665990 0.892202 0.000000
0.892202 0.892202 0.000000
1.000000 0.892202 0.000000
1.000000 0.892202 0.000000
1.000000 0.892202 0.000000
1.000000 0.892202 0.000000
1.000000 0.892202 0.000000
1.000000 0.892202 0.000000
1.000000 0.892202 0.000000
0.000000 1.000000 0.000000
0.000000 1.000000 0.000000
0.115595 1.000000 0.000000
0.195541 1.000000 0.000000
0.271595 1.000000 0.000000
0.351583 1.000000 0.000000
0.437159 1.000000 0.000000
0.534874 1.000000 0.000000
0.665990 1.000000 0.000000
0.892202 1.000000 0.000000
1.000000 1.000000 0.000000
1.000000 1.000000 0.000000
1.000000 1.000000 0.000000
1.000000 1.000000 0.000000
1.000000 1.000000 0.000000
1.000000 1.000000 0.000000
1.000000 1.000000 0.000000
0.000000 1.000000 0.000000
0.000000 1.000000 0.000000
0.115595 1.000000 0.000000
0.195541 1.000000 0.000000
0.271595 1.000000 0.000000
0.351583 1.000000 0.000000
0.437159 1.000000 0.000000
0.534874 1.000000 0.000000
0.665990 1.000000 0.000000
0.892202 1.000000 0.000000
1.000000 1.000000 0.000000
1.000000 1.000000 0.000000
1.000000 1.000000 0.000000
1.000000 1.000000 0.000000
1.000000 1.000000 0.000000
1.000000 1.000000 0.000000
1.000000 1.000000 0.000000
0.000000 1.000000 0.000000
0.000000 1.000000 0.000000
0.115595 1.000000 0.000000
0.195541 1.000000 0.000000
0.271595 1.000000 0.000000
0.351583 1.000000 0.000000
0.437159 1.000000 0.000000
0.534874 1.000000 0.000000
0.665990 1.000000 0.000000
0.892202 1.000000 0.000000
1.000000 1.000000 0.000000
1.000000 1.000000 0.000000
1.000000 1.000000 0.000000
1.000000 1.000000 0.000000
1.000000 1.000000 0.000000
1.000000 1.000000 0.000000
1.000000 1.000000 0.000000
0.000000 1.000000 0.000000
0.000000 1.000000 0.000000
0.115595 1.000000 0.000000
0.195541 1.000000 0.000000
0.271595 1.000000 0.000000
0.351583 1.000000 0.000000
0.437159 1.000000 0.000000
0.534874 1.000000 0.000000
0.665990 1.000000 0.000000
0.892202 1.000000 0.000000
1.000000 1.000000 0.000000
1.000000 1.000000 0.000000
1.000000 1.000000 0.000000
1.000000 1.000000 0.000000
1.000000 1.000000 0.000000
1.000000 1.000000 0.000000
1.000000 1.000000 0.000000
0.000000 1.000000 0.000000
0.000000 1.000000 0.000000
0.115595 1.000000 0.000000
0.195541 1.000000 0.000000
0.271595 1.000000 0.000000
0.351583 1.000000 0.000000
0.437159 1.000000 0.000000
0.534874 1.000000 0.000000
0.665990 1.000000 0.000000
0.892202 1.000000 0.000000
1.000000 1.000000 0.000000
1.000000 1.000000 0.000000
1.000000 1.000000 0.000000
1.000000 1.000000 0.000000
1.000000 1.000000 0.000000
1.000000 1.000000 0.000000
1.000000 1.000000 0.000000
0.000000 1.000000 0.000000
0.000000 1.000000 0.000000
0.115595 1.000000 0.000000
0.195541 1.000000 0.000000
0.271595 1.000000 0.000000
0.351583 1.000000 0.000000
0.437159 1.000000 0.000000
0.534874 1.000000 0.000000
0.665990 1.000000 0.000000
0.892202 1.000000 0.000000
1.000000 1.000000 0.000000
1.000000 1.000000 0.000000
1.000000 1.000000 0.000000
1.000000 1.000000 0.000000
1.000000 1.000000 0.000000
1.000000 1.000000 0.000000
1.000000 1.000000 0.000000
0.000000 1.000000 0.000000
0.000000 1.000000 0.000000
0.115595 1.000000 0.000000
0.195541 1.000000 0.000000
0.271595 1.000000 0.000000
0.351583 1.000000 0.000000
0.437159 1.000000 0.000000
0.534874 1.000000 0.000000
0.665990 1.000000 0.000000
0.892202 1.000000 0.000000
1.000000 1.000000 0.000000
1.000000 1.000000 0.000000
1.000000 1.000000 0.000000
1.000000 1.000000 0.000000
1.000000 1.000000 0.000000
1.000000 1.000000 0.000000
1.000000 1.000000 0.000000
0.000000 0.000000 0.000000
0.000000 0.000000 0.000000
0.115595 0.000000 0.000000
0.195541 0.000000 0.000000
0.271595 0.000000 0.000000
0.351583 0.000000 0.000000
0.437159 0.000000 0.000000
0.534874 0.000000 0.000000
0.665990 0.000000 0.000000
0.892202 0.000000 0.000000
1.000000 0.000000 0.000000
1.000000 0.000000 0.000000
1.000000 0.000000 0.000000
1.000000 0.000000 0.000000
1.000000 0.000000 0.000000
1.000000 0.000000 0.000000
1.000000 0.000000 0.000000
0.000000 0.000000 0.000000
0.000000 0.000000 0.000000
0.115595 0.000000 0.000000
0.195541 0.000000 0.000000
0.271595 0.000000 0.000000
0.351583 0.000000 0.000000
0.437159 0.000000 0.000000
0.534874 0.000000 0.000000
0.665990 0.000000 0.000000
0.892202 0.000000 0.000000
1.000000 0.000000 0.000000
1.000000 0.000000 0.000000
1.000000 0.000000 0.000000
1.000000 0.000000 0.000000
1.000000 0.000000 0.000000
1.000000 0.000000 0.000000
1.000000 0.000000 0.000000
0.000000 0.114582 0.000000
0.000000 0.114582 0.000000
0.115595 0.114582 0.000000
0.195541 0.114582 0.000000
0.271595 0.114582 0.000000
0.351583 0.114582 0.000000
0.437159 0.114582 0.000000
0.534874 0.114582 0.000000
0.665990 0.114582 0.000000
0.892202 0.114582 0.000000
1.000000 0.114582 0.000000
1.000000 0.114582 0.000000
1.000000 0.114582 0.000000
1.000000 0.114582 0.000000
1.000000 0.114582 0.000000
1.000000 0.114582 0.000000
1.000000 0.114582 0.000000
0.000000 0.193900 0.000000
0.000000 0.193900 0.000000
0.115595 0.193900 0.000000
0.195541 0.193900 0.000000
0.271595 0.193900 0.000000
0.351583 0.193900 0.000000
0.437159 0.193900 0.000000
0.534874 0.193900 0.000000
0.665990 0.193900 0.000000
0.892202 0.193900 0.000000
1.000000 0.193900 0.000000
1.000000 0.193900 0.000000
1.000000 0.193900 0.000000
1.000000 0.193900 0.000000
1.000000 0.193900 0.000000
1.000000 0.193900 0.000000
1.000000 0.193900 0.000000
0.000000 0.269455 0.000000
0.000000 0.269455 0.000000
0.115595 0.269455 0.000000
0.195541 0.269455 0.000000
0.271595 0.269455 0.000000
0.351583 0.269455 0.000000
0.437159 0.269455 0.000000
0.534874 0.269455 0.000000
0.665990 0.269455 0.000000
0.892202 0.269455 0.000000
1.000000 0.269455 0.000000
1.000000 0.269455 0.000000
1.000000 0.269455 0.000000
1.000000 0.269455 0.000000
1.000000 0.269455 0.000000
1.000000 0.269455 0.000000
1.000000 0.269455 0.000000
0.000000 0.349037 0.000000
0.000000 0.349037 0.000000
0.115595 0.349037 0.000000
0.195541 0.349037 0.000000
0.271595 0.349037 0.000000
0.351583 0.349037 0.000000
0.437159 0.349037 0.000000
0.534874 0.349037 0.000000
0.665990 0.349037 0.000000
0.892202 0.349037 0.000000
1.000000 0.349037 0.000000
1.000000 0.349037 0.000000
1.000000 0.349037 0.000000
1.000000 0.349037 0.000000
1.000000 0.349037 0.000000
1.000000 0.349037 0.000000
1.000000 0.349037 0.000000
0.000000 0.434230 0.000000
0.000000 0.434230 0.000000
0.115595 0.434230 0.000000
0.195541 0.434230 0.000000
0.271595 0.434230 0.000000
0.351583 0.434230 0.000000
0.437159 0.434230 0.000000
0.534874 0.434230 0.000000
0.665990 0.434230 0.000000
0.892202 0.434230 0.000000
1.000000 0.434230 0.000000
1.000000 0.434230 0.000000
1.000000 0.434230 0.000000
1.000000 0.434230 0.000000
1.000000 0.434230 0.000000
1.000000 0.434230 0.000000
1.000000 0.434230 0.000000
0.000000 0.531162 0.000000
0.000000 0.531162 0.000000
0.115595 0.531162 0.000000
0.195541 0.531162 0.000000
0.271595 0.531162 0.000000
0.351583 0.531162 0.000000
0.437159 0.531162 0.000000
0.534874 0.531162 0.000000
0.665990 0.531162 0.000000
0.892202 0.531162 0.000000
1.000000 0.531162 0.000000
1.000000 0.531162 0.000000
1.000000 0.531162 0.000000
1.000000 0.531162 0.000000
1.000000 0.531162 0.000000
1.000000 0.531162 0.000000
1.000000 0.531162 0.000000
0.000000 0.665990 0.000000
0.000000 0.665990 0.000000
0.115595 0.665990 0.000000
0.195541 0.665990 0.000000
0.271595 0.665990 0.000000
0.351583 0.665990 0.000000
0.437159 0.665990 0.000000
0.534874 0.665990 0.000000
0.665990 0.665990 0.000000
0.892202 0.665990 0.000000
1.000000 0.665990 0.000000
1.000000 0.665990 0.000000
1.000000 0.665990 0.000000
1.000000 0.665990 0.000000
1.000000 0.665990 0.000000
1.000000 0.665990 0.000000
1.000000 0.665990 0.000000
0.000000 0.892202 0.000000
0.000000 0.892202 0.000000
0.115595 0.892202 0.000000
0.195541 0.892202 0.000000
0.271595 0.892202 0.000000
0.351583 0.892202 0.000000
0.437159 0.892202 0.000000
0.534874 0.892202 0.000000
0.665990 0.892202 0.000000
0.892202 0.892202 0.000000
1.000000 0.892202 0.000000
1.000000 0.892202 0.000000
1.000000 0.892202 0.000000
1.000000 0.892202 0.000000
1.000000 0.892202 0.000000
1.000000 0.892202 0.000000
1.000000 0.892202 0.000000
0.000000 1.000000 0.000000
0.000000 1.000000 0.000000
0.115595 1.000000 0.000000
0.195541 1.000000 0.000000
0.271595 1.000000 0.000000
0.351583 1.000000 0.000000
0.437159 1.000000 0.000000
0.534874 1.000000 0.000000
0.665990 1.000000 0.000000
0.892202 1.000000 0.000000
1.000000 1.000000 0.000000
1.000000 1.000000 0.000000
1.000000 1.000000 0.000000
1.000000 1.000000 0.000000
1.000000 1.000000 0.000000
1.000000 1.000000 0.000000
1.000000 1.000000 0.000000
0.000000 1.000000 0.000000
0.000000 1.000000 0.000000
0.115595 1.000000 0.000000
0.195541 1.000000 0.000000
0.271595 1.000000 0.000000
0.351583 1.000000 0.000000
0.437159 1.000000 0.000000
0.534874 1.000000 0.000000
0.665990 1.000000 0.000000
0.892202 1.000000 0.000000
1.000000 1.000000 0.000000
1.000000 1.000000 0.000000
1.000000 1.000000 0.000000
1.000000 1.000000 0.000000
1.000000 1.000000 0.000000
1.000000 1.000000 0.000000
1.000000 1.000000 0.000000
0.000000 1.000000 0.000000
0.000000 1.000000 0.000000
0.115595 1.000000 0.000000
0.195541 1.000000 0.000000
0.271595 1.000000 0.000000
0.351583 1.000000 0.000000
0.437159 1.000000 0.000000
0.534874 1.000000 0.000000
0.665990 1.000000 0.000000
0.892202 1.000000 0.000000
1.000000 1.000000 0.000000
1.000000 1.000000 0.000000
1.000000 1.000000 0.000000
1.000000 1.000000 0.000000
1.000000 1.000000 0.000000
1.000000 1.000000 0.000000
1.000000 1.000000 0.000000
0.000000 1.000000 0.000000
0.000000 1.000000 0.000000
0.115595 1.000000 0.000000
0.195541 1.000000 0.000000
0.271595 1.000000 0.000000
0.351583 1.000000 0.000000
0.437159 1.000000 0.000000
0.534874 1.000000 0.000000
0.665990 1.000000 0.000000
0.892202 1.000000 0.000000
1.000000 1.000000 0.000000
1.000000 1.000000 0.000000
1.000000 1.000000 0.000000
1.000000 1.000000 0.000000
1.000000 1.000000 0.000000
1.000000 1.000000 0.000000
1.000000 1.000000 0.000000
0.000000 1.000000 0.000000
0.000000 1.000000 0.000000
0.115595 1.000000 0.000000
0.195541 1.000000 0.000000
0.271595 1.000000 0.000000
0.351583 1.000000 0.000000
0.437159 1.000000 0.000000
0.534874 1.000000 0.000000
0.665990 1.000000 0.000000
0.892202 1.000000 0.000000
1.000000 1.000000 0.000000
1.000000 1.000000 0.000000
1.000000 1.000000 0.000000
1.000000 1.000000 0.000000
1.000000 1.000000 0.000000
1.000000 1.000000 0.000000
1.000000 1.000000 0.000000
0.000000 1.000000 0.000000
0.000000 1.000000 0.000000
0.115595 1.000000 0.000000
0.195541 1.000000 0.000000
0.271595 1.000000 0.000000
0.351583 1.000000 0.000000
0.437159 1.000000 0.000000
0.534874 1.000000 0.000000
0.665990 1.000000 0.000000
0.892202 1.000000 0.000000
1.000000 1.000000 0.000000
1.000000 1.000000 0.000000
1.000000 1.000000 0.000000
1.000000 1.000000 0.000000
1.000000 1.000000 0.000000
1.000000 1.000000 0.000000
1.000000 1.000000 0.000000
0.000000 1.000000 0.000000
0.000000 1.000000 0.000000
0.115595 1.000000 0.000000
0.195541 1.000000 0.000000
0.271595 1.000000 0.000000
0.351583 1.000000 0.000000
0.437159 1.000000 0.000000
0.534874 1.000000 0.000000
0.665990 1.000000 0.000000
0.892202 1.000000 0.000000
1.000000 1.000000 0.000000
1.000000 1.000000 0.000000
1.000000 1.000000 0.000000
1.000000 1.000000 0.000000
1.000000 1.000000 0.000000
1.000000 1.000000 0.000000
1.000000 1.000000 0.000000
0.000000 0.000000 0.114072
0.000000 0.000000 0.114072
0.115595 0.000000 0.114072
0.195541 0.000000 0.114072
0.271595 0.000000 0.114072
0.351583 0.000000 0.114072
0.437159 0.000000 0.114072
0.534874 0.000000 0.114072
0.665990 0.000000 0.114072
0.892202 0.000000 0.114072
1.000000 0.000000 0.114072
1.000000 0.000000 0.114072
1.000000 0.000000 0.114072
1.000000 0.000000 0.114072
1.000000 0.000000 0.114072
1.000000 0.000000 0.114072
1.000000 0.000000 0.114072
0.000000 0.000000 0.114072
0.000000 0.000000 0.114072
0.115595 0.000000 0.114072
0.195541 0.000000 0.114072
0.271595 0.000000 0.114072
0.351583 0.000000 0.114072
0.437159 0.000000 0.114072
0.534874 0.000000 0.114072
0.665990 0.000000 0.114072
0.892202 0.000000 0.114072
1.000000 0.000000 0.114072
1.000000 0.000000 0.114072
1.000000 0.000000 0.114072
1.000000 0.000000 0.114072
1.000000 0.000000 0.114072
1.000000 0.000000 0.114072
1.000000 0.000000 0.114072
0.000000 0.114582 0.114072
0.000000 0.114582 0.114072
0.115595 0.114582 0.114072
0.195541 0.114582 0.114072
0.271595 0.114582 0.114072
0.351583 0.114582 0.114072
0.437159 0.114582 0.114072
0.534874 0.114582 0.114072
0.665990 0.114582 0.114072
0.892202 0.114582 0.114072
1.000000 0.114582 0.114072
1.000000 0.114582 0.114072
1.000000 0.114582 0.114072
1.000000 0.114582 0.114072
1.000000 0.114582 0.114072
1.000000 0.114582 0.114072
1.000000 0.114582 0.114072
0.000000 0.193900 0.114072
0.000000 0.193900 0.114072
0.115595 0.193900 0.114072
0.195541 0.193900 0.114072
0.271595 0.193900 0.114072
0.351583 0.193900 0.114072
0.437159 0.193900 0.114072
0.534874 0.193900 0.114072
0.665990 0.193900 0.114072
0.892202 0.193900 0.114072
1.000000 0.193900 0.114072
1.000000 0.193900 0.114072
1.000000 0.193900 0.114072
1.000000 0.193900 0.114072
1.000000 0.193900 0.114072
1.000000 0.193900 0.114072
1.000000 0.193900 0.114072
0.000000 0.269455 0.114072
0.000000 0.269455 0.114072
0.115595 0.269455 0.114072
0.195541 0.269455 0.114072
0.271595 0.269455 0.114072
0.351583 0.269455 0.114072
0.437159 0.269455 0.114072
0.534874 0.269455 0.114072
0.665990 0.269455 0.114072
0.892202 0.269455 0.114072
1.000000 0.269455 0.114072
1.000000 0.269455 0.114072
1.000000 0.269455 0.114072
1.000000 0.269455 0.114072
1.000000 0.269455 0.114072
1.000000 0.269455 0.114072
1.000000 0.269455 0.114072
0.000000 0.349037 0.114072
0.000000 0.349037 0.114072
0.115595 0.349037 0.114072
0.195541 0.349037 0.114072
0.271595 0.349037 0.114072
0.351583 0.349037 0.114072
0.437159 0.349037 0.114072
0.534874 0.349037 0.114072
0.665990 0.349037 0.114072
0.892202 0.349037 0.114072
1.000000 0.349037 0.114072
1.000000 0.349037 0.114072
1.000000 0.349037 0.114072
1.000000 0.349037 0.114072
1.000000 0.349037 0.114072
1.000000 0.349037 0.114072
1.000000 0.349037 0.114072
0.000000 0.434230 0.114072
0.000000 0.434230 0.114072
0.115595 0.434230 0.114072
0.195541 0.434230 0.114072
0.271595 0.434230 0.114072
0.351583 0.434230 0.114072
0.437159 0.434230 0.114072
0.534874 0.434230 0.114072
0.665990 0.434230 0.114072
0.892202 0.434230 0.114072
1.000000 0.434230 0.114072
1.000000 0.434230 0.114072
1.000000 0.434230 0.114072
1.000000 0.434230 0.114072
1.000000 0.434230 0.114072
1.000000 0.434230 0.114072
1.000000 0.434230 0.114072
0.000000 0.531162 0.114072
0.000000 0.531162 0.114072
0.115595 0.531162 0.114072
0.195541 0.531162 0.114072
0.271595 0.531162 0.114072
0.351583 0.531162 0.114072
0.437159 0.531162 0.114072
0.534874 0.531162 0.114072
0.665990 0.531162 0.114072
0.892202 0.531162 0.114072
1.000000 0.531162 0.114072
1.000000 0.531162 0.114072
1.000000 0.531162 0.114072
1.000000 0.531162 0.114072
1.000000 0.531162 0.114072
1.000000 0.531162 0.114072
1.000000 0.531162 0.114072
0.000000 0.665990 0.114072
0.000000 0.665990 0.114072
0.115595 0.665990 0.114072
0.195541 0.665990 0.114072
0.271595 0.665990 0.114072
0.351583 0.665990 0.114072
0.437159 0.665990 0.114072
0.534874 0.665990 0.114072
0.665990 0.665990 0.114072
0.892202 0.665990 0.114072
1.000000 0.665990 0.114072
1.000000 0.665990 0.114072
1.000000 0.665990 0.114072
1.000000 0.665990 0.114072
1.000000 0.665990 0.114072
1.000000 0.665990 0.114072
1.000000 0.665990 0.114072
0.000000 0.892202 0.114072
0.000000 0.892202 0.114072
0.115595 0.892202 0.114072
0.195541 0.892202 0.114072
0.271595 0.892202 0.114072
0.351583 0.892202 0.114072
0.437159 0.892202 0.114072
0.534874 0.892202 0.114072
0.665990 0.892202 0.114072
0.892202 0.892202 0.114072
1.000000 0.892202 0.114072
1.000000 0.892202 0.114072
1.000000 0.892202 0.114072
1.000000 0.892202 0.114072
1.000000 0.892202 0.114072
1.000000 0.892202 0.114072
1.000000 0.892202 0.114072
0.000000 1.000000 0.114072
0.000000 1.000000 0.114072
0.115595 1.000000 0.114072
0.195541 1.000000 0.114072
0.271595 1.000000 0.114072
0.351583 1.000000 0.114072
0.437159 1.000000 0.114072
0.534874 1.000000 0.114072
0.665990 1.000000 0.114072
0.892202 1.000000 0.114072
1.000000 1.000000 0.114072
1.000000 1.000000 0.114072
1.000000 1.000000 0.114072
1.000000 1.000000 0.114072
1.000000 1.000000 0.114072
1.000000 1.000000 0.114072
1.000000 1.000000 0.114072
0.000000 1.000000 0.114072
0.000000 1.000000 0.114072
0.115595 1.000000 0.114072
0.195541 1.000000 0.114072
0.271595 1.000000 0.114072
0.351583 1.000000 0.114072
0.437159 1.000000 0.114072
0.534874 1.000000 0.114072
0.665990 1.000000 0.114072
0.892202 1.000000 0.114072
1.000000 1.000000 0.114072
1.000000 1.000000 0.114072
1.000000 1.000000 0.114072
1.000000 1.000000 0.114072
1.000000 1.000000 0.114072
1.000000 1.000000 0.114072
1.000000 1.000000 0.114072
0.000000 1.000000 0.114072
0.000000 1.000000 0.114072
0.115595 1.000000 0.114072
0.195541 1.000000 0.114072
0.271595 1.000000 0.114072
0.351583 1.000000 0.114072
0.437159 1.000000 0.114072
0.534874 1.000000 0.114072
0.665990 1.000000 0.114072
0.892202 1.000000 0.114072
1.000000 1.000000 0.114072
1.000000 1.000000 0.114072
1.000000 1.000000 0.114072
1.000000 1.000000 0.114072
1.000000 1.000000 0.114072
1.000000 1.000000 0.114072
1.000000 1.000000 0.114072
0.000000 1.000000 0.114072
0.000000 1.000000 0.114072
0.115595 1.000000 0.114072
0.195541 1.000000 0.114072
0.271595 1.000000 0.114072
0.351583 1.000000 0.114072
0.437159 1.000000 0.114072
0.534874 1.000000 0.114072
0.665990 1.000000 0.114072
0.892202 1.000000 0.114072
1.000000 1.000000 0.114072
1.000000 1.000000 0.114072
1.000000 1.000000 0.114072
1.000000 1.000000 0.114072
1.000000 1.000000 0.114072
1.000000 1.000000 0.114072
1.000000 1.000000 0.114072
0.000000 1.000000 0.114072
0.000000 1.000000 0.114072
0.115595 1.000000 0.114072
0.195541 1.000000 0.114072
0.271595 1.000000 0.114072
0.351583 1.000000 0.114072
0.437159 1.000000 0.114072
0.534874 1.000000 0.114072
0.665990 1.000000 0.114072
0.892202 1.000000 0.114072
1.000000 1.000000 0.114072
1.000000 1.000000 0.114072
1.000000 1.000000 0.114072
1.000000 1.000000 0.114072
1.000000 1.000000 0.114072
1.000000 1.000000 0.114072
1.000000 1.000000 0.114072
0.000000 1.000000 0.114072
0.000000 1.000000 0.114072
0.115595 1.000000 0.114072
0.195541 1.000000 0.114072
0.271595 1.000000 0.114072
0.351583 1.000000 0.114072
0.437159 1.000000 0.114072
0.534874 1.000000 0.114072
0.665990 1.000000 0.114072
0.892202 1.000000 0.114072
1.000000 1.000000 0.114072
1.000000 1.000000 0.114072
1.000000 1.000000 0.114072
1.000000 1.000000 0.114072
1.000000 1.000000 0.114072
1.000000 1.000000 0.114072
1.000000 1.000000 0.114072
0.000000 1.000000 0.114072
0.000000 1.000000 0.114072
0.115595 1.000000 0.114072
0.195541 1.000000 0.114072
0.271595 1.000000 0.114072
0.351583 1.000000 0.114072
0.437159 1.000000 0.114072
0.534874 1.000000 0.114072
0.665990 1.000000 0.114072
0.892202 1.000000 0.114072
1.000000 1.000000 0.114072
1.000000 1.000000 0.114072
1.000000 1.000000 0.114072
1.000000 1.000000 0.114072
1.000000 1.000000 0.114072
1.000000 1.000000 0.114072
1.000000 1.000000 0.114072
0.000000 0.000000 0.193072
0.000000 0.000000 0.193072
0.115595 0.000000 0.193072
0.195541 0.000000 0.193072
0.271595 0.000000 0.193072
0.351583 0.000000 0.193072
0.437159 0.000000 0.193072
0.534874 0.000000 0.193072
0.665990 0.000000 0.193072
0.892202 0.000000 0.193072
1.000000 0.000000 0.193072
1.000000 0.000000 0.193072
1.000000 0.000000 0.193072
1.000000 0.000000 0.193072
1.000000 0.000000 0.193072
1.000000 0.000000 0.193072
1.000000 0.000000 0.193072
