src/luts/natural.cube
TITLE "DJI D-Log to natural (soft S-curve, warm shadows)"
LUT_3D_SIZE 5
DOMAIN_MIN 0.0 0.0 0.0
DOMAIN_MAX 1.0 1.0 1.0
0.000000 0.000000 0.000000
0.271595 0.000000 0.000000
0.665990 0.000000 0.000000
1.000000 0.000000 0.000000
1.000000 0.000000 0.000000
0.000000 0.269455 0.000000
0.271595 0.269455 0.000000
0.665990 0.269455 0.000000
1.000000 0.269455 0.000000
1.000000 0.269455 0.000000
0.000000 0.665990 0.000000
0.271595 0.665990 0.000000
0.665990 0.665990 0.000000
1.000000 0.665990 0.000000
1.000000 0.665990 0.000000
0.000000 1.000000 0.000000
0.271595 1.000000 0.000000
0.665990 1.000000 0.000000
1.000000 1.000000 0.000000
1.000000 1.000000 0.000000
0.000000 1.000000 0.000000
0.271595 1.000000 0.000000
0.665990 1.000000 0.000000
1.000000 1.000000 0.000000
1.000000 1.000000 0.000000
0.000000 0.000000 0.268373
0.271595 0.000000 0.268373
0.665990 0.000000 0.268373
1.000000 0.000000 0.268373
1.000000 0.000000 0.268373
0.000000 0.269455 0.268373
0.271595 0.269455 0.268373
0.665990 0.269455 0.268373
1.000000 0.269455 0.268373
1.000000 0.269455 0.268373
0.000000 0.665990 0.268373
0.271595 0.665990 0.268373
0.665990 0.665990 0.268373
1.000000 0.665990 0.268373
1.000000 0.665990 0.268373
0.000000 1.000000 0.268373
0.271595 1.000000 0.268373
0.665990 1.000000 0.268373
1.000000 1.000000 0.268373
1.000000 1.000000 0.268373
0.000000 1.000000 0.268373
0.271595 1.000000 0.268373
0.665990 1.000000 0.268373
1.000000 1.000000 0.268373
1.000000 1.000000 0.268373
0.000000 0.000000 0.665990
0.271595 0.000000 0.665990
0.665990 0.000000 0.665990
1.000000 0.000000 0.665990
1.000000 0.000000 0.665990
0.000000 0.269455 0.665990
0.271595 0.269455 0.665990
0.665990 0.269455 0.665990
1.000000 0.269455 0.665990
1.000000 0.269455 0.665990
0.000000 0.665990 0.665990
0.271595 0.665990 0.665990
0.665990 0.665990 0.665990
1.000000 0.665990 0.665990
1.000000 0.665990 0.665990
0.000000 1.000000 0.665990
0.271595 1.000000 0.665990
0.665990 1.000000 0.665990
1.000000 1.000000 0.665990
1.000000 1.000000 0.665990
0.000000 1.000000 0.665990
0.271595 1.000000 0.665990
0.665990 1.000000 0.665990
1.000000 1.000000 0.665990
1.000000 1.000000 0.665990
0.000000 0.000000 1.000000
0.271595 0.000000 1.000000
0.665990 0.000000 1.000000
1.000000 0.000000 1.000000
1.000000 0.000000 1.000000
0.000000 0.269455 1.000000
0.271595 0.269455 1.000000
0.665990 0.269455 1.000000
1.000000 0.269455 1.000000
1.000000 0.269455 1.000000
0.000000 0.665990 1.000000
0.271595 0.665990 1.000000
0.665990 0.665990 1.000000
1.000000 0.665990 1.000000
1.000000 0.665990 1.000000
0.000000 1.000000 1.000000
0.271595 1.000000 1.000000
0.665990 1.000000 1.000000
1.000000 1.000000 1.000000
1.000000 1.000000 1.000000
0.000000 1.000000 1.000000
0.271595 1.000000 1.000000
0.665990 1.000000 1.000000
1.000000 1.000000 1.000000
1.000000 1.000000 1.000000
0.000000 0.000000 1.000000
0.271595 0.000000 1.000000
0.665990 0.000000 1.000000
1.000000 0.000000 1.000000
1.000000 0.000000 1.000000
0.000000 0.269455 1.000000
0.271595 0.269455 1.000000
0.665990 0.269455 1.000000
1.000000 0.269455 1.000000
1.000000 0.269455 1.000000
0.000000 0.665990 1.000000
0.271595 0.665990 1.000000
0.665990 0.665990 1.000000
1.000000 0.665990 1.000000
1.000000 0.665990 1.000000
0.000000 1.000000 1.000000
0.271595 1.000000 1.000000
0.665990 1.000000 1.000000
1.000000 1.000000 1.000000
1.000000 1.000000 1.000000
0.000000 1.000000 1.000000
0.271595 1.000000 1.000000
0.665990 1.000000 1.000000
1.000000 1.000000 1.000000
1.000000 1.000000 1.000000
