src/luts/rec709.cube
TITLE "DJI D-Log to Rec.709 (gamma 2.4)"
LUT_3D_SIZE 9
DOMAIN_MIN 0.0 0.0 0.0
DOMAIN_MAX 1.0 1.0 1.0
0.000000 0.000000 0.000000
0.112909 0.000000 0.000000
0.259735 0.000000 0.000000
0.445134 0.000000 0.000000
0.725231 0.000000 0.000000
1.000000 0.000000 0.000000
1.000000 0.000000 0.000000
1.000000 0.000000 0.000000
1.000000 0.000000 0.000000
0.000000 0.112909 0.000000
0.112909 0.112909 0.000000
0.259735 0.112909 0.000000
0.445134 0.112909 0.000000
0.725231 0.112909 0.000000
1.000000 0.112909 0.000000
1.000000 0.112909 0.000000
1.000000 0.112909 0.000000
1.000000 0.112909 0.000000
0.000000 0.259735 0.000000
0.112909 0.259735 0.000000
0.259735 0.259735 0.000000
0.445134 0.259735 0.000000
0.725231 0.259735 0.000000
1.000000 0.259735 0.000000
1.000000 0.259735 0.000000
1.000000 0.259735 0.000000
1.000000 0.259735 0.000000
0.000000 0.445134 0.000000
0.112909 0.445134 0.000000
0.259735 0.445134 0.000000
0.445134 0.445134 0.000000
0.725231 0.445134 0.000000
1.000000 0.445134 0.000000
1.000000 0.445134 0.000000
1.000000 0.445134 0.000000
1.000000 0.445134 0.000000
0.000000 0.725231 0.000000
0.112909 0.725231 0.000000
0.259735 0.725231 0.000000
0.445134 0.725231 0.000000
0.725231 0.725231 0.000000
1.000000 0.725231 0.000000
1.000000 0.725231 0.000000
1.000000 0.725231 0.000000
1.000000 0.725231 0.000000
0.000000 1.000000 0.000000
0.112909 1.000000 0.000000
0.259735 1.000000 0.000000
0.445134 1.000000 0.000000
0.725231 1.000000 0.000000
1.000000 1.000000 0.000000
1.000000 1.000000 0.000000
1.000000 1.000000 0.000000
1.000000 1.000000 0.000000
0.000000 1.000000 0.000000
0.112909 1.000000 0.000000
0.259735 1.000000 0.000000
0.445134 1.000000 0.000000
0.725231 1.000000 0.000000
1.000000 1.000000 0.000000
1.000000 1.000000 0.000000
1.000000 1.000000 0.000000
1.000000 1.000000 0.000000
0.000000 1.000000 0.000000
0.112909 1.000000 0.000000
0.259735 1.000000 0.000000
0.445134 1.000000 0.000000
0.725231 1.000000 0.000000
1.000000 1.000000 0.000000
1.000000 1.000000 0.000000
1.000000 1.000000 0.000000
1.000000 1.000000 0.000000
0.000000 1.000000 0.000000
0.112909 1.000000 0.000000
0.259735 1.000000 0.000000
0.445134 1.000000 0.000000
0.725231 1.000000 0.000000
1.000000 1.000000 0.000000
1.000000 1.000000 0.000000
1.000000 1.000000 0.000000
1.000000 1.000000 0.000000
0.000000 0.000000 0.112909
0.112909 0.000000 0.112909
0.259735 0.000000 0.112909
0.445134 0.000000 0.112909
0.725231 0.000000 0.112909
1.000000 0.000000 0.112909
1.000000 0.000000 0.112909
1.000000 0.000000 0.112909
1.000000 0.000000 0.112909
0.000000 0.112909 0.112909
0.112909 0.112909 0.112909
0.259735 0.112909 0.112909
0.445134 0.112909 0.112909
0.725231 0.112909 0.112909
1.000000 0.112909 0.112909
1.000000 0.112909 0.112909
1.000000 0.112909 0.112909
1.000000 0.112909 0.112909
0.000000 0.259735 0.112909
0.112909 0.259735 0.112909
0.259735 0.259735 0.112909
0.445134 0.259735 0.112909
0.725231 0.259735 0.112909
1.000000 0.259735 0.112909
1.000000 0.259735 0.112909
1.000000 0.259735 0.112909
1.000000 0.259735 0.112909
0.000000 0.445134 0.112909
0.112909 0.445134 0.112909
0.259735 0.445134 0.112909
0.445134 0.445134 0.112909
0.725231 0.445134 0.112909
1.000000 0.445134 0.112909
1.000000 0.445134 0.112909
1.000000 0.445134 0.112909
1.000000 0.445134 0.112909
0.000000 0.725231 0.112909
0.112909 0.725231 0.112909
0.259735 0.725231 0.112909
0.445134 0.725231 0.112909
0.725231 0.725231 0.112909
1.000000 0.725231 0.112909
1.000000 0.725231 0.112909
1.000000 0.725231 0.112909
1.000000 0.725231 0.112909
0.000000 1.000000 0.112909
0.112909 1.000000 0.112909
0.259735 1.000000 0.112909
0.445134 1.000000 0.112909
0.725231 1.000000 0.112909
1.000000 1.000000 0.112909
1.000000 1.000000 0.112909
1.000000 1.000000 0.112909
1.000000 1.000000 0.112909
0.000000 1.000000 0.112909
0.112909 1.000000 0.112909
0.259735 1.000000 0.112909
0.445134 1.000000 0.112909
0.725231 1.000000 0.112909
1.000000 1.000000 0.112909
1.000000 1.000000 0.112909
1.000000 1.000000 0.112909
1.000000 1.000000 0.112909
0.000000 1.000000 0.112909
0.112909 1.000000 0.112909
0.259735 1.000000 0.112909
0.445134 1.000000 0.112909
0.725231 1.000000 0.112909
1.000000 1.000000 0.112909
1.000000 1.000000 0.112909
1.000000 1.000000 0.112909
1.000000 1.000000 0.112909
0.000000 1.000000 0.112909
0.112909 1.000000 0.112909
0.259735 1.000000 0.112909
0.445134 1.000000 0.112909
0.725231 1.000000 0.112909
1.000000 1.000000 0.112909
1.000000 1.000000 0.112909
1.000000 1.000000 0.112909
1.000000 1.000000 0.112909
0.000000 0.000000 0.259735
0.112909 0.000000 0.259735
0.259735 0.000000 0.259735
0.445134 0.000000 0.259735
0.725231 0.000000 0.259735
1.000000 0.000000 0.259735
1.000000 0.000000 0.259735
1.000000 0.000000 0.259735
1.000000 0.000000 0.259735
0.000000 0.112909 0.259735
0.112909 0.112909 0.259735
0.259735 0.112909 0.259735
0.445134 0.112909 0.259735
0.725231 0.112909 0.259735
1.000000 0.112909 0.259735
1.000000 0.112909 0.259735
1.000000 0.112909 0.259735
1.000000 0.112909 0.259735
0.000000 0.259735 0.259735
0.112909 0.259735 0.259735
0.259735 0.259735 0.259735
0.445134 0.259735 0.259735
0.725231 0.259735 0.259735
1.000000 0.259735 0.259735
1.000000 0.259735 0.259735
1.000000 0.259735 0.259735
1.000000 0.259735 0.259735
0.000000 0.445134 0.259735
0.112909 0.445134 0.259735
0.259735 0.445134 0.259735
0.445134 0.445134 0.259735
0.725231 0.445134 0.259735
1.000000 0.445134 0.259735
1.000000 0.445134 0.259735
1.000000 0.445134 0.259735
1.000000 0.445134 0.259735
0.000000 0.725231 0.259735
0.112909 0.725231 0.259735
0.259735 0.725231 0.259735
0.445134 0.725231 0.259735
0.725231 0.725231 0.259735
1.000000 0.725231 0.259735
1.000000 0.725231 0.259735
1.000000 0.725231 0.259735
1.000000 0.725231 0.259735
0.000000 1.000000 0.259735
0.112909 1.000000 0.259735
0.259735 1.000000 0.259735
0.445134 1.000000 0.259735
0.725231 1.000000 0.259735
1.000000 1.000000 0.259735
1.000000 1.000000 0.259735
1.000000 1.000000 0.259735
1.000000 1.000000 0.259735
0.000000 1.000000 0.259735
0.112909 1.000000 0.259735
0.259735 1.000000 0.259735
0.445134 1.000000 0.259735
0.725231 1.000000 0.259735
1.000000 1.000000 0.259735
1.000000 1.000000 0.259735
1.000000 1.000000 0.259735
1.000000 1.000000 0.259735
0.000000 1.000000 0.259735
0.112909 1.000000 0.259735
0.259735 1.000000 0.259735
0.445134 1.000000 0.259735
0.725231 1.000000 0.259735
1.000000 1.000000 0.259735
1.000000 1.000000 0.259735
1.000000 1.000000 0.259735
1.000000 1.000000 0.259735
0.000000 1.000000 0.259735
0.112909 1.000000 0.259735
0.259735 1.000000 0.259735
0.445134 1.000000 0.259735
0.725231 1.000000 0.259735
1.000000 1.000000 0.259735
1.000000 1.000000 0.259735
1.000000 1.000000 0.259735
1.000000 1.000000 0.259735
0.000000 0.000000 0.445134
0.112909 0.000000 0.445134
0.259735 0.000000 0.445134
0.445134 0.000000 0.445134
0.725231 0.000000 0.445134
1.000000 0.000000 0.445134
1.000000 0.000000 0.445134
1.000000 0.000000 0.445134
1.000000 0.000000 0.445134
0.000000 0.112909 0.445134
0.112909 0.112909 0.445134
0.259735 0.112909 0.445134
0.445134 0.112909 0.445134
0.725231 0.112909 0.445134
1.000000 0.112909 0.445134
1.000000 0.112909 0.445134
1.000000 0.112909 0.445134
1.000000 0.112909 0.445134
0.000000 0.259735 0.445134
0.112909 0.259735 0.445134
0.259735 0.259735 0.445134
0.445134 0.259735 0.445134
0.725231 0.259735 0.445134
1.000000 0.259735 0.445134
1.000000 0.259735 0.445134
1.000000 0.259735 0.445134
1.000000 0.259735 0.445134
0.000000 0.445134 0.445134
0.112909 0.445134 0.445134
0.259735 0.445134 0.445134
0.445134 0.445134 0.445134
0.725231 0.445134 0.445134
1.000000 0.445134 0.445134
1.000000 0.445134 0.445134
1.000000 0.445134 0.445134
1.000000 0.445134 0.445134
0.000000 0.725231 0.445134
0.112909 0.725231 0.445134
0.259735 0.725231 0.445134
0.445134 0.725231 0.445134
0.725231 0.725231 0.445134
1.000000 0.725231 0.445134
1.000000 0.725231 0.445134
1.000000 0.725231 0.445134
1.000000 0.725231 0.445134
0.000000 1.000000 0.445134
0.112909 1.000000 0.445134
0.259735 1.000000 0.445134
0.445134 1.000000 0.445134
0.725231 1.000000 0.445134
1.000000 1.000000 0.445134
1.000000 1.000000 0.445134
1.000000 1.000000 0.445134
1.000000 1.000000 0.445134
0.000000 1.000000 0.445134
0.112909 1.000000 0.445134
0.259735 1.000000 0.445134
0.445134 1.000000 0.445134
0.725231 1.000000 0.445134
1.000000 1.000000 0.445134
1.000000 1.000000 0.445134
1.000000 1.000000 0.445134
1.000000 1.000000 0.445134
0.000000 1.000000 0.445134
0.112909 1.000000 0.445134
0.259735 1.000000 0.445134
0.445134 1.000000 0.445134
0.725231 1.000000 0.445134
1.000000 1.000000 0.445134
1.000000 1.000000 0.445134
1.000000 1.000000 0.445134
1.000000 1.000000 0.445134
0.000000 1.000000 0.445134
0.112909 1.000000 0.445134
0.259735 1.000000 0.445134
0.445134 1.000000 0.445134
0.725231 1.000000 0.445134
1.000000 1.000000 0.445134
1.000000 1.000000 0.445134
1.000000 1.000000 0.445134
1.000000 1.000000 0.445134
0.000000 0.000000 0.725231
0.112909 0.000000 0.725231
0.259735 0.000000 0.725231
0.445134 0.000000 0.725231
0.725231 0.000000 0.725231
1.000000 0.000000 0.725231
1.000000 0.000000 0.725231
1.000000 0.000000 0.725231
1.000000 0.000000 0.725231
0.000000 0.112909 0.725231
0.112909 0.112909 0.725231
0.259735 0.112909 0.725231
0.445134 0.112909 0.725231
0.725231 0.112909 0.725231
1.000000 0.112909 0.725231
1.000000 0.112909 0.725231
1.000000 0.112909 0.725231
1.000000 0.112909 0.725231
0.000000 0.259735 0.725231
0.112909 0.259735 0.725231
0.259735 0.259735 0.725231
0.445134 0.259735 0.725231
0.725231 0.259735 0.725231
1.000000 0.259735 0.725231
1.000000 0.259735 0.725231
1.000000 0.259735 0.725231
1.000000 0.259735 0.725231
0.000000 0.445134 0.725231
0.112909 0.445134 0.725231
0.259735 0.445134 0.725231
0.445134 0.445134 0.725231
0.725231 0.445134 0.725231
1.000000 0.445134 0.725231
1.000000 0.445134 0.725231
1.000000 0.445134 0.725231
1.000000 0.445134 0.725231
0.000000 0.725231 0.725231
0.112909 0.725231 0.725231
0.259735 0.725231 0.725231
0.445134 0.725231 0.725231
0.725231 0.725231 0.725231
1.000000 0.725231 0.725231
1.000000 0.725231 0.725231
1.000000 0.725231 0.725231
1.000000 0.725231 0.725231
0.000000 1.000000 0.725231
0.112909 1.000000 0.725231
0.259735 1.000000 0.725231
0.445134 1.000000 0.725231
0.725231 1.000000 0.725231
1.000000 1.000000 0.725231
1.000000 1.000000 0.725231
1.000000 1.000000 0.725231
1.000000 1.000000 0.725231
0.000000 1.000000 0.725231
0.112909 1.000000 0.725231
0.259735 1.000000 0.725231
0.445134 1.000000 0.725231
0.725231 1.000000 0.725231
1.000000 1.000000 0.725231
1.000000 1.000000 0.725231
1.000000 1.000000 0.725231
1.000000 1.000000 0.725231
0.000000 1.000000 0.725231
0.112909 1.000000 0.725231
0.259735 1.000000 0.725231
0.445134 1.000000 0.725231
0.725231 1.000000 0.725231
1.000000 1.000000 0.725231
1.000000 1.000000 0.725231
1.000000 1.000000 0.725231
1.000000 1.000000 0.725231
0.000000 1.000000 0.725231
0.112909 1.000000 0.725231
0.259735 1.000000 0.725231
0.445134 1.000000 0.725231
0.725231 1.000000 0.725231
1.000000 1.000000 0.725231
1.000000 1.000000 0.725231
1.000000 1.000000 0.725231
1.000000 1.000000 0.725231
0.000000 0.000000 1.000000
0.112909 0.000000 1.000000
0.259735 0.000000 1.000000
0.445134 0.000000 1.000000
0.725231 0.000000 1.000000
1.000000 0.000000 1.000000
1.000000 0.000000 1.000000
1.000000 0.000000 1.000000
1.000000 0.000000 1.000000
0.000000 0.112909 1.000000
0.112909 0.112909 1.000000
0.259735 0.112909 1.000000
0.445134 0.112909 1.000000
0.725231 0.112909 1.000000
1.000000 0.112909 1.000000
1.000000 0.112909 1.000000
1.000000 0.112909 1.000000
1.000000 0.112909 1.000000
0.000000 0.259735 1.000000
0.112909 0.259735 1.000000
0.259735 0.259735 1.000000
0.445134 0.259735 1.000000
0.725231 0.259735 1.000000
1.000000 0.259735 1.000000
1.000000 0.259735 1.000000
1.000000 0.259735 1.000000
1.000000 0.259735 1.000000
0.000000 0.445134 1.000000
0.112909 0.445134 1.000000
0.259735 0.445134 1.000000
0.445134 0.445134 1.000000
0.725231 0.445134 1.000000
1.000000 0.445134 1.000000
1.000000 0.445134 1.000000
1.000000 0.445134 1.000000
1.000000 0.445134 1.000000
0.000000 0.725231 1.000000
0.112909 0.725231 1.000000
0.259735 0.725231 1.000000
0.445134 0.725231 1.000000
0.725231 0.725231 1.000000
1.000000 0.725231 1.000000
1.000000 0.725231 1.000000
1.000000 0.725231 1.000000
1.000000 0.725231 1.000000
0.000000 1.000000 1.000000
0.112909 1.000000 1.000000
0.259735 1.000000 1.000000
0.445134 1.000000 1.000000
0.725231 1.000000 1.000000
1.000000 1.000000 1.000000
1.000000 1.000000 1.000000
1.000000 1.000000 1.000000
1.000000 1.000000 1.000000
0.000000 1.000000 1.000000
0.112909 1.000000 1.000000
0.259735 1.000000 1.000000
0.445134 1.000000 1.000000
0.725231 1.000000 1.000000
1.000000 1.000000 1.000000
1.000000 1.000000 1.000000
1.000000 1.000000 1.000000
1.000000 1.000000 1.000000
0.000000 1.000000 1.000000
0.112909 1.000000 1.000000
0.259735 1.000000 1.000000
0.445134 1.000000 1.000000
0.725231 1.000000 1.000000
1.000000 1.000000 1.000000
1.000000 1.000000 1.000000
1.000000 1.000000 1.000000
1.000000 1.000000 1.000000
0.000000 1.000000 1.000000
0.112909 1.000000 1.000000
0.259735 1.000000 1.000000
0.445134 1.000000 1.000000
0.725231 1.000000 1.000000
1.000000 1.000000 1.000000
1.000000 1.000000 1.000000
1.000000 1.000000 1.000000
1.000000 1.000000 1.000000
0.000000 0.000000 1.000000
0.112909 0.000000 1.000000
0.259735 0.000000 1.000000
0.445134 0.000000 1.000000
0.725231 0.000000 1.000000
1.000000 0.000000 1.000000
1.000000 0.000000 1.000000
1.000000 0.000000 1.000000
1.000000 0.000000 1.000000
0.000000 0.112909 1.000000
0.112909 0.112909 1.000000
0.259735 0.112909 1.000000
0.445134 0.112909 1.000000
0.725231 0.112909 1.000000
1.000000 0.112909 1.000000
1.000000 0.112909 1.000000
1.000000 0.112909 1.000000
1.000000 0.112909 1.000000
0.000000 0.259735 1.000000
0.112909 0.259735 1.000000
0.259735 0.259735 1.000000
0.445134 0.259735 1.000000
0.725231 0.259735 1.000000
1.000000 0.259735 1.000000
1.000000 0.259735 1.000000
1.000000 0.259735 1.000000
1.000000 0.259735 1.000000
0.000000 0.445134 1.000000
0.112909 0.445134 1.000000
0.259735 0.445134 1.000000
0.445134 0.445134 1.000000
0.725231 0.445134 1.000000
1.000000 0.445134 1.000000
1.000000 0.445134 1.000000
1.000000 0.445134 1.000000
1.000000 0.445134 1.000000
0.000000 0.725231 1.000000
0.112909 0.725231 1.000000
0.259735 0.725231 1.000000
0.445134 0.725231 1.000000
0.725231 0.725231 1.000000
1.000000 0.725231 1.000000
1.000000 0.725231 1.000000
1.000000 0.725231 1.000000
1.000000 0.725231 1.000000
0.000000 1.000000 1.000000
0.112909 1.000000 1.000000
0.259735 1.000000 1.000000
0.445134 1.000000 1.000000
0.725231 1.000000 1.000000
1.000000 1.000000 1.000000
1.000000 1.000000 1.000000
1.000000 1.000000 1.000000
1.000000 1.000000 1.000000
0.000000 1.000000 1.000000
0.112909 1.000000 1.000000
0.259735 1.000000 1.000000
0.445134 1.000000 1.000000
0.725231 1.000000 1.000000
1.000000 1.000000 1.000000
1.000000 1.000000 1.000000
1.000000 1.000000 1.000000
1.000000 1.000000 1.000000
0.000000 1.000000 1.000000
0.112909 1.000000 1.000000
0.259735 1.000000 1.000000
0.445134 1.000000 1.000000
0.725231 1.000000 1.000000
1.000000 1.000000 1.000000
1.000000 1.000000 1.000000
1.000000 1.000000 1.000000
1.000000 1.000000 1.000000
0.000000 1.000000 1.000000
0.112909 1.000000 1.000000
0.259735 1.000000 1.000000
0.445134 1.000000 1.000000
0.725231 1.000000 1.000000
1.000000 1.000000 1.000000
1.000000 1.000000 1.000000
1.000000 1.000000 1.000000
1.000000 1.000000 1.000000
0.000000 0.000000 1.000000
0.112909 0.000000 1.000000
0.259735 0.000000 1.000000
0.445134 0.000000 1.000000
0.725231 0.000000 1.000000
1.000000 0.000000 1.000000
1.000000 0.000000 1.000000
1.000000 0.000000 1.000000
1.000000 0.000000 1.000000
0.000000 0.112909 1.000000
0.112909 0.112909 1.000000
0.259735 0.112909 1.000000
0.445134 0.112909 1.000000
0.725231 0.112909 1.000000
1.000000 0.112909 1.000000
1.000000 0.112909 1.000000
1.000000 0.112909 1.000000
1.000000 0.112909 1.000000
0.000000 0.259735 1.000000
0.112909 0.259735 1.000000
0.259735 0.259735 1.000000
0.445134 0.259735 1.000000
0.725231 0.259735 1.000000
1.000000 0.259735 1.000000
1.000000 0.259735 1.000000
1.000000 0.259735 1.000000
1.000000 0.259735 1.000000
0.000000 0.445134 1.000000
0.112909 0.445134 1.000000
0.259735 0.445134 1.000000
0.445134 0.445134 1.000000
0.725231 0.445134 1.000000
1.000000 0.445134 1.000000
1.000000 0.445134 1.000000
1.000000 0.445134 1.000000
1.000000 0.445134 1.000000
0.000000 0.725231 1.000000
0.112909 0.725231 1.000000
0.259735 0.725231 1.000000
0.445134 0.725231 1.000000
0.725231 0.725231 1.000000
1.000000 0.725231 1.000000
1.000000 0.725231 1.000000
1.000000 0.725231 1.000000
1.000000 0.725231 1.000000
0.000000 1.000000 1.000000
0.112909 1.000000 1.000000
0.259735 1.000000 1.000000
0.445134 1.000000 1.000000
0.725231 1.000000 1.000000
1.000000 1.000000 1.000000
1.000000 1.000000 1.000000
1.000000 1.000000 1.000000
1.000000 1.000000 1.000000
0.000000 1.000000 1.000000
0.112909 1.000000 1.000000
0.259735 1.000000 1.000000
0.445134 1.000000 1.000000
0.725231 1.000000 1.000000
1.000000 1.000000 1.000000
1.000000 1.000000 1.000000
1.000000 1.000000 1.000000
1.000000 1.000000 1.000000
0.000000 1.000000 1.000000
0.112909 1.000000 1.000000
0.259735 1.000000 1.000000
0.445134 1.000000 1.000000
0.725231 1.000000 1.000000
1.000000 1.000000 1.000000
1.000000 1.000000 1.000000
1.000000 1.000000 1.000000
1.000000 1.000000 1.000000
0.000000 1.000000 1.000000
0.112909 1.000000 1.000000
0.259735 1.000000 1.000000
0.445134 1.000000 1.000000
0.725231 1.000000 1.000000
1.000000 1.000000 1.000000
1.000000 1.000000 1.000000
1.000000 1.000000 1.000000
1.000000 1.000000 1.000000
0.000000 0.000000 1.000000
0.112909 0.000000 1.000000
0.259735 0.000000 1.000000
0.445134 0.000000 1.000000
0.725231 0.000000 1.000000
1.000000 0.000000 1.000000
1.000000 0.000000 1.000000
1.000000 0.000000 1.000000
1.000000 0.000000 1.000000
0.000000 0.112909 1.000000
0.112909 0.112909 1.000000
0.259735 0.112909 1.000000
0.445134 0.112909 1.000000
0.725231 0.112909 1.000000
1.000000 0.112909 1.000000
1.000000 0.112909 1.000000
1.000000 0.112909 1.000000
1.000000 0.112909 1.000000
0.000000 0.259735 1.000000
0.112909 0.259735 1.000000
0.259735 0.259735 1.000000
0.445134 0.259735 1.000000
0.725231 0.259735 1.000000
1.000000 0.259735 1.000000
1.000000 0.259735 1.000000
1.000000 0.259735 1.000000
1.000000 0.259735 1.000000
0.000000 0.445134 1.000000
0.112909 0.445134 1.000000
0.259735 0.445134 1.000000
0.445134 0.445134 1.000000
0.725231 0.445134 1.000000
1.000000 0.445134 1.000000
1.000000 0.445134 1.000000
1.000000 0.445134 1.000000
1.000000 0.445134 1.000000
0.000000 0.725231 1.000000
0.112909 0.725231 1.000000
0.259735 0.725231 1.000000
0.445134 0.725231 1.000000
0.725231 0.725231 1.000000
1.000000 0.725231 1.000000
1.000000 0.725231 1.000000
1.000000 0.725231 1.000000
1.000000 0.725231 1.000000
0.000000 1.000000 1.000000
0.112909 1.000000 1.000000
0.259735 1.000000 1.000000
0.445134 1.000000 1.000000
0.725231 1.000000 1.000000
1.000000 1.000000 1.000000
1.000000 1.000000 1.000000
1.000000 1.000000 1.000000
1.000000 1.000000 1.000000
0.000000 1.000000 1.000000
0.112909 1.000000 1.000000
0.259735 1.000000 1.000000
0.445134 1.000000 1.000000
0.725231 1.000000 1.000000
1.000000 1.000000 1.000000
1.000000 1.000000 1.000000
1.000000 1.000000 1.000000
1.000000 1.000000 1.000000
0.000000 1.000000 1.000000
0.112909 1.000000 1.000000
0.259735 1.000000 1.000000
0.445134 1.000000 1.000000
0.725231 1.000000 1.000000
1.000000 1.000000 1.000000
1.000000 1.000000 1.000000
1.000000 1.000000 1.000000
1.000000 1.000000 1.000000
0.000000 1.000000 1.000000
0.112909 1.000000 1.000000
0.259735 1.000000 1.000000
0.445134 1.000000 1.000000
0.725231 1.000000 1.000000
1.000000 1.000000 1.000000
1.000000 1.000000 1.000000
1.000000 1.000000 1.000000
1.000000 1.000000 1.000000
